Numix/16/status/indicator-keyboard-Ta-4.svg

<?xml version="1.0" encoding="UTF-8" standalone="no"?>
<svg
   xmlns:dc="http://purl.org/dc/elements/1.1/"
   xmlns:cc="http://creativecommons.org/ns#"
   xmlns:rdf="http://www.w3.org/1999/02/22-rdf-syntax-ns#"
   xmlns:svg="http://www.w3.org/2000/svg"
   xmlns="http://www.w3.org/2000/svg"
   xmlns:sodipodi="http://sodipodi.sourceforge.net/DTD/sodipodi-0.dtd"
   xmlns:inkscape="http://www.inkscape.org/namespaces/inkscape"
   viewBox="0 0 16 16"
   id="svg2"
   version="1.1"
   inkscape:version="0.91 r13725"
   sodipodi:docname="indicator-keyboard-Ta-4.svg">
  <metadata
     id="metadata14">
    <rdf:RDF>
      <cc:Work
         rdf:about="">
        <dc:format>image/svg+xml</dc:format>
        <dc:type
           rdf:resource="http://purl.org/dc/dcmitype/StillImage" />
      </cc:Work>
    </rdf:RDF>
  </metadata>
  <defs
     id="defs12" />
  <sodipodi:namedview
     pagecolor="#ffffff"
     bordercolor="#666666"
     borderopacity="1"
     objecttolerance="10"
     gridtolerance="10"
     guidetolerance="10"
     inkscape:pageopacity="0"
     inkscape:pageshadow="2"
     inkscape:window-width="640"
     inkscape:window-height="480"
     id="namedview10"
     showgrid="false"
     inkscape:zoom="14.75"
     inkscape:cx="8"
     inkscape:cy="8"
     inkscape:window-x="65"
     inkscape:window-y="24"
     inkscape:window-maximized="0"
     inkscape:current-layer="svg2" />
  <path
     style="fill:#ececec;fill-opacity:1"
     d="M 1.5996094 0 C 0.71320937 2.9605947e-16 0 0.71320937 0 1.5996094 L 0 14.400391 C 2.9605947e-16 15.286791 0.71320937 16 1.5996094 16 L 14.400391 16 C 15.286791 16 16 15.286791 16 14.400391 L 16 1.5996094 C 16 0.71320937 15.286791 0 14.400391 0 L 1.5996094 0 z M 1.9628906 4.859375 L 6.5722656 4.859375 L 6.5722656 5.390625 L 4.5742188 5.390625 L 4.5742188 11.095703 L 3.9609375 11.095703 L 3.9609375 5.390625 L 1.9628906 5.390625 L 1.9628906 4.859375 z M 8.6289062 6.3359375 C 8.9349062 6.3359375 9.1923438 6.3807031 9.4023438 6.4707031 C 9.6183437 6.5547031 9.7937813 6.6740781 9.9257812 6.8300781 C 10.057781 6.9800781 10.152891 7.1591406 10.212891 7.3691406 C 10.272891 7.5791406 10.302734 7.8086875 10.302734 8.0546875 L 10.302734 10.988281 C 10.242734 11.006281 10.155016 11.026781 10.041016 11.050781 C 9.9270156 11.068781 9.7964844 11.089281 9.6464844 11.113281 C 9.4964844 11.137281 9.3285781 11.155969 9.1425781 11.167969 C 8.9625781 11.185969 8.7759844 11.195313 8.5839844 11.195312 C 8.3379844 11.195312 8.1103906 11.167281 7.9003906 11.113281 C 7.6963906 11.059281 7.515375 10.975328 7.359375 10.861328 C 7.209375 10.741328 7.09 10.592109 7 10.412109 C 6.916 10.226109 6.8730469 10.000328 6.8730469 9.7363281 C 6.8730469 9.4843281 6.9215781 9.2698437 7.0175781 9.0898438 C 7.1135781 8.9098438 7.2498281 8.7624375 7.4238281 8.6484375 C 7.5978281 8.5284375 7.8029688 8.4407187 8.0429688 8.3867188 C 8.2829687 8.3327188 8.5441719 8.3066406 8.8261719 8.3066406 C 8.9101719 8.3066406 8.9978906 8.3122187 9.0878906 8.3242188 C 9.1838906 8.3302187 9.2734219 8.341375 9.3574219 8.359375 C 9.4474219 8.371375 9.5220312 8.3862969 9.5820312 8.4042969 C 9.6480312 8.4162969 9.69475 8.4294063 9.71875 8.4414062 L 9.71875 8.1523438 C 9.71875 7.9903438 9.7056406 7.8355469 9.6816406 7.6855469 C 9.6576406 7.5295469 9.6035312 7.3914844 9.5195312 7.2714844 C 9.4415312 7.1454844 9.3277344 7.0466094 9.1777344 6.9746094 C 9.0337344 6.8966094 8.8415625 6.8574219 8.6015625 6.8574219 C 8.2595625 6.8574219 8.0058906 6.8816875 7.8378906 6.9296875 C 7.6698906 6.9776875 7.54675 7.016875 7.46875 7.046875 L 7.3867188 6.5332031 C 7.4887187 6.4852031 7.6454687 6.4404375 7.8554688 6.3984375 C 8.0714688 6.3564375 8.3289063 6.3359375 8.6289062 6.3359375 z M 8.8085938 8.8105469 C 8.6645937 8.8105469 8.515375 8.8217031 8.359375 8.8457031 C 8.203375 8.8637031 8.0597344 8.9084687 7.9277344 8.9804688 C 7.7957344 9.0464688 7.6875156 9.1397656 7.6035156 9.2597656 C 7.5195156 9.3797656 7.4765625 9.5383281 7.4765625 9.7363281 C 7.4765625 9.9103281 7.5045938 10.057734 7.5585938 10.177734 C 7.6185937 10.297734 7.6987813 10.394797 7.8007812 10.466797 C 7.9087812 10.538797 8.0356875 10.592906 8.1796875 10.628906 C 8.3296875 10.658906 8.4975938 10.673828 8.6835938 10.673828 C 8.9115938 10.673828 9.1093437 10.666297 9.2773438 10.654297 C 9.4513437 10.636297 9.59875 10.615797 9.71875 10.591797 L 9.71875 8.953125 C 9.65275 8.923125 9.5463438 8.8932813 9.4023438 8.8632812 C 9.2583437 8.8272812 9.0605938 8.8105469 8.8085938 8.8105469 z M 13.136719 8.8417969 L 13.533203 8.8417969 L 13.533203 11.486328 L 14.037109 11.486328 L 14.037109 11.796875 L 13.533203 11.796875 L 13.533203 12.896484 L 13.160156 12.896484 L 13.160156 11.796875 L 11.322266 11.796875 L 11.322266 11.5625 C 11.392466 11.3753 11.490434 11.163687 11.615234 10.929688 C 11.743934 10.695688 11.886975 10.456637 12.046875 10.210938 C 12.206775 9.9652374 12.38116 9.7261874 12.568359 9.4921875 C 12.755559 9.2542875 12.945619 9.0367969 13.136719 8.8417969 z M 13.160156 9.2695312 C 13.023656 9.4099313 12.884541 9.5706063 12.744141 9.7539062 C 12.603741 9.9372063 12.468543 10.129225 12.339844 10.328125 C 12.215044 10.523125 12.097481 10.719069 11.988281 10.917969 C 11.879081 11.116869 11.788944 11.306928 11.714844 11.486328 L 13.160156 11.486328 L 13.160156 9.2695312 z "
     id="path4" />
</svg>

<svg xmlns="http://www.w3.org/2000/svg" viewBox="0 0 16 16">
 <path d="m 1.6 0 c -0.886 0 -1.6 0.713 -1.6 1.6 l 0 12.801 c 0 0.886 0.713 1.6 1.6 1.6 l 12.801 0 c 0.886 0 1.6 -0.713 1.6 -1.6 l 0 -12.801 c 0 -0.886 -0.713 -1.6 -1.6 -1.6 l -12.801 0 z m 0.363 4.859 l 4.609 0 l 0 0.531 l -1.998 0 l 0 5.705 l -0.613 0 l 0 -5.705 l -1.998 0 l 0 -0.531 z m 6.666 1.477 c 0.306 0 0.563 0.045 0.773 0.135 c 0.216 0.084 0.391 0.203 0.523 0.359 c 0.132 0.15 0.227 0.329 0.287 0.539 c 0.06 0.21 0.09 0.44 0.09 0.686 l 0 2.934 c -0.06 0.018 -0.148 0.038 -0.262 0.063 c -0.114 0.018 -0.245 0.038 -0.395 0.063 c -0.15 0.024 -0.318 0.043 -0.504 0.055 c -0.18 0.018 -0.367 0.027 -0.559 0.027 c -0.246 0 -0.474 -0.028 -0.684 -0.082 c -0.204 -0.054 -0.385 -0.138 -0.541 -0.252 c -0.15 -0.12 -0.269 -0.269 -0.359 -0.449 c -0.084 -0.186 -0.127 -0.412 -0.127 -0.676 c 0 -0.252 0.049 -0.466 0.145 -0.646 c 0.096 -0.18 0.232 -0.327 0.406 -0.441 c 0.174 -0.12 0.379 -0.208 0.619 -0.262 c 0.24 -0.054 0.501 -0.08 0.783 -0.08 c 0.084 0 0.172 0.006 0.262 0.018 c 0.096 0.006 0.186 0.017 0.27 0.035 c 0.09 0.012 0.165 0.027 0.225 0.045 c 0.066 0.012 0.113 0.025 0.137 0.037 l 0 -0.289 c 0 -0.162 -0.013 -0.317 -0.037 -0.467 c -0.024 -0.156 -0.078 -0.294 -0.162 -0.414 c -0.078 -0.126 -0.192 -0.225 -0.342 -0.297 c -0.144 -0.078 -0.336 -0.117 -0.576 -0.117 c -0.342 0 -0.596 0.024 -0.764 0.072 c -0.168 0.048 -0.291 0.087 -0.369 0.117 l -0.082 -0.514 c 0.102 -0.048 0.259 -0.093 0.469 -0.135 c 0.216 -0.042 0.473 -0.063 0.773 -0.063 z m 0.18 2.475 c -0.144 0 -0.293 0.011 -0.449 0.035 c -0.156 0.018 -0.3 0.063 -0.432 0.135 c -0.132 0.066 -0.24 0.159 -0.324 0.279 c -0.084 0.12 -0.127 0.279 -0.127 0.477 c 0 0.174 0.028 0.321 0.082 0.441 c 0.06 0.12 0.14 0.217 0.242 0.289 c 0.108 0.072 0.235 0.126 0.379 0.162 c 0.15 0.03 0.318 0.045 0.504 0.045 c 0.228 0 0.426 -0.008 0.594 -0.02 c 0.174 -0.018 0.321 -0.038 0.441 -0.063 l 0 -1.639 c -0.066 -0.03 -0.172 -0.06 -0.316 -0.09 c -0.144 -0.036 -0.342 -0.053 -0.594 -0.053 z m 4.328 0.031 l 0.396 0 l 0 2.645 l 0.504 0 l 0 0.311 l -0.504 0 l 0 1.1 l -0.373 0 l 0 -1.1 l -1.838 0 l 0 -0.234 c 0.07 -0.187 0.168 -0.399 0.293 -0.633 c 0.129 -0.234 0.272 -0.473 0.432 -0.719 c 0.16 -0.246 0.334 -0.485 0.521 -0.719 c 0.187 -0.238 0.377 -0.455 0.568 -0.65 z m 0.023 0.428 c -0.136 0.14 -0.276 0.301 -0.416 0.484 c -0.14 0.183 -0.276 0.375 -0.404 0.574 c -0.125 0.195 -0.242 0.391 -0.352 0.59 c -0.109 0.199 -0.199 0.389 -0.273 0.568 l 1.445 0 l 0 -2.217 z" style="fill:#ececec;fill-opacity:1"/>
</svg>
